veiligh_ruimtelijk_type/1018.svg

<?xml version="1.0" encoding="utf-8"?>
<!-- Generator: Adobe Illustrator 24.1.0, SVG Export Plug-In . SVG Version: 6.00 Build 0)  -->
<svg version="1.1"
	 id="svg2" xmlns:cc="http://creativecommons.org/ns#" xmlns:dc="http://purl.org/dc/elements/1.1/" xmlns:inkscape="http://www.inkscape.org/namespaces/inkscape" xmlns:rdf="http://www.w3.org/1999/02/22-rdf-syntax-ns#" xmlns:sodipodi="http://sodipodi.sourceforge.net/DTD/sodipodi-0.dtd" xmlns:svg="http://www.w3.org/2000/svg"
	 xmlns="http://www.w3.org/2000/svg" xmlns:xlink="http://www.w3.org/1999/xlink" x="0px" y="0px" viewBox="0 0 71 71"
	 style="enable-background:new 0 0 71 71;" xml:space="preserve">
<style type="text/css">
	.st0{fill:#B1093D;}
	.st1{fill:#FFFFFF;}
</style>
<rect y="0" class="st0" width="71" height="71"/>
<path class="st1" d="M62.4,57.4c0,0-9.8,2.2-14.6-2.9c1.4,4.4,4.5,10.4,14.6,9.5C62.2,57.9,62.4,57.4,62.4,57.4z"/>
<path class="st1" d="M62.3,50.5c0,0-14.8-1.7-15.4-16.3c8.1,10.4,15.4,9.9,15.4,9.9L62.3,50.5z"/>
<path class="st1" d="M61.1,53.6c0,0-6.1-1.1-8.3-4.4c-1.6-2.4-6-5.1-10.4-2.6c4.9,1.8,5.3,2.7,7.1,5S56.2,57.3,61.1,53.6z"/>
<path class="st1" d="M56.6,21.2c0,0-0.5,6.5,5.7,9.3v7.2C62.4,37.6,52.9,32.5,56.6,21.2z"/>
<path class="st1" d="M61.1,40.2c0,0-4.8-2.6-6.5-7.7c-1.8-5.1-4.8-8.6-8.4-8.5c3.6,4.4,3.5,6.6,4.4,9.2
	C51.4,35.9,55.4,41.4,61.1,40.2z"/>
<g>
	<path class="st1" d="M32.7,22.4c-0.1-0.2-0.1-0.3-0.2-0.5h0c-0.3-0.8-0.7-1.7-1.1-2.6c0,0,0,0,0,0c-0.1-0.3-0.2-0.6-0.4-0.9
		c0-0.1-0.1-0.2-0.1-0.2c-0.1-0.3-0.2-0.5-0.3-0.7c0-0.1-0.1-0.2-0.1-0.3c-0.1-0.2-0.2-0.5-0.4-0.7c-0.1-0.1-0.1-0.2-0.2-0.3
		c-0.1-0.2-0.2-0.4-0.4-0.6c-0.1-0.1-0.1-0.2-0.2-0.3c-0.1-0.2-0.3-0.4-0.4-0.6c-0.1-0.1-0.2-0.2-0.3-0.3c-0.1-0.2-0.3-0.4-0.4-0.5
		c-0.1-0.1-0.2-0.2-0.3-0.3c-0.2-0.2-0.3-0.3-0.5-0.5c-0.1-0.1-0.2-0.2-0.3-0.3c-0.2-0.1-0.4-0.3-0.5-0.4c-0.1-0.1-0.2-0.2-0.4-0.3
		c-0.2-0.1-0.4-0.2-0.6-0.4c-0.1-0.1-0.3-0.2-0.4-0.2c-0.2-0.1-0.5-0.2-0.7-0.3c-0.2-0.1-0.3-0.1-0.5-0.2c-0.2-0.1-0.5-0.2-0.8-0.2
		c-0.2,0-0.3-0.1-0.5-0.1c-0.3-0.1-0.6-0.1-0.9-0.2c-0.2,0-0.3-0.1-0.5-0.1c-0.5-0.1-1-0.1-1.5-0.1c-0.5,0-1,0-1.4,0
		c-0.2,0-0.4,0-0.6,0c-0.2,0-0.4,0-0.6,0.1c-0.2,0-0.5,0.1-0.7,0.1c-0.1,0-0.2,0-0.3,0.1c-0.3,0.1-0.5,0.1-0.7,0.2c0,0,0,0,0,0l0,0
		c-4.5,1.2-4.6,4.1-4.6,4.1l-1.1,0.4l-2.3,7.6l1.1,0.5c0,0-0.9,4-3.1,4.3c-2.2,0.3-1.9,1.1-1.9,1.1h37.7v-0.2
		C41.2,28.4,34.9,27.6,32.7,22.4z"/>
	<rect x="3.5" y="29.9" class="st1" width="37.7" height="2.2"/>
	<path class="st1" d="M34.6,23c0.1,0.2,0.2,0.3,0.4,0.5C35,23.5,34.8,23.3,34.6,23z"/>
	<path class="st1" d="M33.3,20.2c0.2,0.6,0.4,1.1,0.7,1.6c0.2,0.4,0.3,0.7,0.5,1c0.1,0.2,0.3,0.4,0.6,0.8c1.7,2.3,4,2.7,4,2.7
		c0.1,0,0.2,0.1,0.3,0.1L38.6,26c-1.2-1.1-3.5-4-4.4-7.5c-1.8-7-5.7-13.5-19.3-13.6l-0.3,4.5c1.3-0.4,3-0.6,5.1-0.6
		C28.7,8.7,31.3,15.1,33.3,20.2z"/>
	<path class="st1" d="M34.6,23c0-0.1-0.1-0.1-0.1-0.2C34.2,22.4,34.4,22.7,34.6,23z"/>
</g>
</svg>

<?xml version="1.0" encoding="UTF-8" standalone="no"?>
<!-- Generator: Adobe Illustrator 24.1.0, SVG Export Plug-In . SVG Version: 6.00 Build 0)  -->

<svg
   xmlns:dc="http://purl.org/dc/elements/1.1/"
   xmlns:cc="http://creativecommons.org/ns#"
   xmlns:rdf="http://www.w3.org/1999/02/22-rdf-syntax-ns#"
   xmlns:svg="http://www.w3.org/2000/svg"
   xmlns="http://www.w3.org/2000/svg"
   xmlns:sodipodi="http://sodipodi.sourceforge.net/DTD/sodipodi-0.dtd"
   xmlns:inkscape="http://www.inkscape.org/namespaces/inkscape"
   version="1.1"
   id="svg2"
   x="0px"
   y="0px"
   viewBox="0 0 125 125"
   xml:space="preserve"
   sodipodi:docname="1018.svg"
   width="125"
   height="125"
   inkscape:version="0.92.5 (2060ec1f9f, 2020-04-08)"><metadata
   id="metadata1172"><rdf:RDF><cc:Work
       rdf:about=""><dc:format>image/svg+xml</dc:format><dc:type
         rdf:resource="http://purl.org/dc/dcmitype/StillImage" /><dc:title></dc:title></cc:Work></rdf:RDF></metadata><defs
   id="defs1170" /><sodipodi:namedview
   pagecolor="#ffffff"
   bordercolor="#666666"
   borderopacity="1"
   objecttolerance="10"
   gridtolerance="10"
   guidetolerance="10"
   inkscape:pageopacity="0"
   inkscape:pageshadow="2"
   inkscape:window-width="1920"
   inkscape:window-height="1017"
   id="namedview1168"
   showgrid="false"
   inkscape:zoom="11.943662"
   inkscape:cx="35.5"
   inkscape:cy="35.5"
   inkscape:window-x="-8"
   inkscape:window-y="-8"
   inkscape:window-maximized="1"
   inkscape:current-layer="svg2" />
<style
   type="text/css"
   id="style1141">
	.st0{fill:#B1093D;}
	.st1{fill:#FFFFFF;}
</style>






<g
   id="g1186"
   transform="matrix(0.91549296,0,0,0.91549296,30,30)"><rect
     id="rect1143"
     height="71"
     width="71"
     class="st0"
     y="0"
     x="0"
     style="fill:#b1093d" /><path
     id="path1145"
     d="m 62.4,57.4 c 0,0 -9.8,2.2 -14.6,-2.9 1.4,4.4 4.5,10.4 14.6,9.5 -0.2,-6.1 0,-6.6 0,-6.6 z"
     class="st1"
     inkscape:connector-curvature="0"
     style="fill:#ffffff" /><path
     id="path1147"
     d="m 62.3,50.5 c 0,0 -14.8,-1.7 -15.4,-16.3 8.1,10.4 15.4,9.9 15.4,9.9 z"
     class="st1"
     inkscape:connector-curvature="0"
     style="fill:#ffffff" /><path
     id="path1149"
     d="m 61.1,53.6 c 0,0 -6.1,-1.1 -8.3,-4.4 -1.6,-2.4 -6,-5.1 -10.4,-2.6 4.9,1.8 5.3,2.7 7.1,5 1.8,2.3 6.7,5.7 11.6,2 z"
     class="st1"
     inkscape:connector-curvature="0"
     style="fill:#ffffff" /><path
     id="path1151"
     d="m 56.6,21.2 c 0,0 -0.5,6.5 5.7,9.3 v 7.2 c 0.1,-0.1 -9.4,-5.2 -5.7,-16.5 z"
     class="st1"
     inkscape:connector-curvature="0"
     style="fill:#ffffff" /><path
     id="path1153"
     d="m 61.1,40.2 c 0,0 -4.8,-2.6 -6.5,-7.7 -1.8,-5.1 -4.8,-8.6 -8.4,-8.5 3.6,4.4 3.5,6.6 4.4,9.2 0.8,2.7 4.8,8.2 10.5,7 z"
     class="st1"
     inkscape:connector-curvature="0"
     style="fill:#ffffff" /><g
     id="g1165">
	<path
   id="path1155"
   d="m 32.7,22.4 c -0.1,-0.2 -0.1,-0.3 -0.2,-0.5 v 0 c -0.3,-0.8 -0.7,-1.7 -1.1,-2.6 0,0 0,0 0,0 C 31.3,19 31.2,18.7 31,18.4 31,18.3 30.9,18.2 30.9,18.2 30.8,17.9 30.7,17.7 30.6,17.5 30.6,17.4 30.5,17.3 30.5,17.2 30.4,17 30.3,16.7 30.1,16.5 30,16.4 30,16.3 29.9,16.2 29.8,16 29.7,15.8 29.5,15.6 29.4,15.5 29.4,15.4 29.3,15.3 29.2,15.1 29,14.9 28.9,14.7 28.8,14.6 28.7,14.5 28.6,14.4 28.5,14.2 28.3,14 28.2,13.9 28.1,13.8 28,13.7 27.9,13.6 27.7,13.4 27.6,13.3 27.4,13.1 27.3,13 27.2,12.9 27.1,12.8 26.9,12.7 26.7,12.5 26.6,12.4 26.5,12.3 26.4,12.2 26.2,12.1 26,12 25.8,11.9 25.6,11.7 25.5,11.6 25.3,11.5 25.2,11.5 25,11.4 24.7,11.3 24.5,11.2 24.3,11.1 24.2,11.1 24,11 c -0.2,-0.1 -0.5,-0.2 -0.8,-0.2 -0.2,0 -0.3,-0.1 -0.5,-0.1 -0.3,-0.1 -0.6,-0.1 -0.9,-0.2 -0.2,0 -0.3,-0.1 -0.5,-0.1 -0.5,-0.1 -1,-0.1 -1.5,-0.1 -0.5,0 -1,0 -1.4,0 -0.2,0 -0.4,0 -0.6,0 -0.2,0 -0.4,0 -0.6,0.1 -0.2,0 -0.5,0.1 -0.7,0.1 -0.1,0 -0.2,0 -0.3,0.1 -0.3,0.1 -0.5,0.1 -0.7,0.2 0,0 0,0 0,0 v 0 C 11,12 10.9,14.9 10.9,14.9 l -1.1,0.4 -2.3,7.6 1.1,0.5 c 0,0 -0.9,4 -3.1,4.3 -2.2,0.3 -1.9,1.1 -1.9,1.1 h 37.7 v -0.2 c -0.1,-0.2 -6.4,-1 -8.6,-6.2 z"
   class="st1"
   inkscape:connector-curvature="0"
   style="fill:#ffffff" />
	<rect
   id="rect1157"
   height="2.2"
   width="37.700001"
   class="st1"
   y="29.9"
   x="3.5"
   style="fill:#ffffff" />
	<path
   id="path1159"
   d="m 34.6,23 c 0.1,0.2 0.2,0.3 0.4,0.5 0,0 -0.2,-0.2 -0.4,-0.5 z"
   class="st1"
   inkscape:connector-curvature="0"
   style="fill:#ffffff" />
	<path
   id="path1161"
   d="m 33.3,20.2 c 0.2,0.6 0.4,1.1 0.7,1.6 0.2,0.4 0.3,0.7 0.5,1 0.1,0.2 0.3,0.4 0.6,0.8 1.7,2.3 4,2.7 4,2.7 0.1,0 0.2,0.1 0.3,0.1 L 38.6,26 C 37.4,24.9 35.1,22 34.2,18.5 32.4,11.5 28.5,5 14.9,4.9 l -0.3,4.5 c 1.3,-0.4 3,-0.6 5.1,-0.6 9,-0.1 11.6,6.3 13.6,11.4 z"
   class="st1"
   inkscape:connector-curvature="0"
   style="fill:#ffffff" />
	<path
   id="path1163"
   d="m 34.6,23 c 0,-0.1 -0.1,-0.1 -0.1,-0.2 -0.3,-0.4 -0.1,-0.1 0.1,0.2 z"
   class="st1"
   inkscape:connector-curvature="0"
   style="fill:#ffffff" />
</g></g>
</svg>
